build/svg/cmd/32/convertinto3d.svg

<?xml version="1.0" encoding="UTF-8" standalone="no"?>
<svg
   xmlns:dc="http://purl.org/dc/elements/1.1/"
   xmlns:cc="http://creativecommons.org/ns#"
   xmlns:rdf="http://www.w3.org/1999/02/22-rdf-syntax-ns#"
   xmlns:svg="http://www.w3.org/2000/svg"
   xmlns="http://www.w3.org/2000/svg"
   xmlns:sodipodi="http://sodipodi.sourceforge.net/DTD/sodipodi-0.dtd"
   xmlns:inkscape="http://www.inkscape.org/namespaces/inkscape"
   viewBox="0 0 32 32"
   version="1.1"
   id="svg8"
   sodipodi:docname="convertinto3d.svg"
   inkscape:export-filename="/home/jupiter007/Libreoffice yaru theme fullcolor/build/cmd/32/convertinto3d.png"
   inkscape:export-xdpi="95"
   inkscape:export-ydpi="95"
   inkscape:version="0.92.5 (2060ec1f9f, 2020-04-08)">
  <metadata
     id="metadata14">
    <rdf:RDF>
      <cc:Work
         rdf:about="">
        <dc:format>image/svg+xml</dc:format>
        <dc:type
           rdf:resource="http://purl.org/dc/dcmitype/StillImage" />
      </cc:Work>
    </rdf:RDF>
  </metadata>
  <defs
     id="defs12" />
  <sodipodi:namedview
     pagecolor="#ffffff"
     bordercolor="#666666"
     borderopacity="1"
     objecttolerance="10"
     gridtolerance="10"
     guidetolerance="10"
     inkscape:pageopacity="0"
     inkscape:pageshadow="2"
     inkscape:window-width="1920"
     inkscape:window-height="1011"
     id="namedview10"
     showgrid="true"
     inkscape:zoom="10.429825"
     inkscape:cx="11.743226"
     inkscape:cy="12.544853"
     inkscape:window-x="0"
     inkscape:window-y="32"
     inkscape:window-maximized="1"
     inkscape:current-layer="svg8">
    <inkscape:grid
       type="xygrid"
       id="grid841" />
  </sodipodi:namedview>
  <path
     inkscape:connector-curvature="0"
     style="opacity:0.6;fill:#000000;stroke:#000000;stroke-width:2;stroke-linejoin:round;stroke-miterlimit:4;stroke-dasharray:none"
     id="path817"
     d="M 8,4.0000003 5,7.0000002 h 19.292969 l 3,-2.9999999 z M 28,4.7070315 25,7.7070314 V 27 l 3,-3 z M 4,8.0000002 V 28 H 24 V 8.0000002 Z" />
  <path
     inkscape:connector-curvature="0"
     style="fill:#b6b6b6;fill-opacity:1"
     d="M 8,4.0000003 5,7.0000002 h 19.292969 l 3,-2.9999999 z"
     id="path845-8" />
  <path
     inkscape:connector-curvature="0"
     style="fill:#b6b6b6;fill-opacity:1"
     d="M 28,4.7070315 25,7.7070314 V 27 l 3,-3 z"
     id="path843" />
  <path
     inkscape:connector-curvature="0"
     style="fill:#ffffff"
     d="M 4,8.0000002 V 28 H 24 V 8.0000002 Z"
     id="path2" />
  <circle
     style="opacity:1;fill:#762572;fill-opacity:1;stroke:none;stroke-width:2.57142854;stroke-linecap:round;stroke-linejoin:round;stroke-miterlimit:4;stroke-dasharray:none;stroke-opacity:1"
     id="path850"
     cx="25.5"
     cy="25.5"
     r="4.5" />
  <path
     id="path845"
     style="fill:#ffffff;fill-opacity:1"
     d="m 27.6875,24.3125 -0.75,0.75 C 26.9785,25.1996 27,25.34921 27,25.5 27,26.331 26.331,27 25.5,27 25.34921,27 25.1996,26.9785 25.0625,26.9375 l -0.75,0.75 C 24.66714,27.88 25.06657,28 25.5,28 26.885,28 28,26.885 28,25.5 28,25.06657 27.88,24.66714 27.6875,24.3125 Z M 25.5,23 c -1.385,0 -2.5,1.115 -2.5,2.5 0,0.43343 0.12,0.83286 0.3125,1.1875 l 0.75,-0.75 C 24.0215,25.8004 24,25.65079 24,25.5 24,24.669 24.669,24 25.5,24 c 0.15079,0 0.3004,0.0215 0.4375,0.0625 l 0.75,-0.75 C 26.33286,23.12 25.93343,23 25.5,23 Z"
     inkscape:connector-curvature="0" />
</svg>

<svg xmlns="http://www.w3.org/2000/svg" viewBox="0 0 32 32"><path d="M8 4L5 7h19.293l3-3zm20 .707l-3 3V27l3-3zM4 8v20h20V8z" opacity=".6" stroke="#000" stroke-width="2" stroke-linejoin="round"/><path d="M8 4L5 7h19.293l3-3zM28 4.707l-3 3V27l3-3z" fill="#b6b6b6"/><path d="M4 8v20h20V8z" fill="#fff"/><circle cx="25.5" cy="25.5" r="4.5" fill="#762572"/><path d="M27.688 24.313l-.75.75c.04.137.062.286.062.437 0 .831-.669 1.5-1.5 1.5-.15 0-.3-.021-.438-.063l-.75.75c.355.193.755.313 1.188.313 1.385 0 2.5-1.115 2.5-2.5 0-.433-.12-.833-.313-1.188zM25.5 23a2.495 2.495 0 00-2.5 2.5c0 .433.12.833.313 1.188l.75-.75A1.539 1.539 0 0124 25.5c0-.831.669-1.5 1.5-1.5.15 0 .3.021.438.063l.75-.75A2.475 2.475 0 0025.5 23z" fill="#fff"/></svg>
